X:1
T:The Banks of the Roses (x)
M:4/4
L:1/4
K:C
 E| G G2 A| E- D C3/2 C/2| c c d e| G2 z2| e d c B| c A G E| A A G E|\
 D2 z E| G G2 A| E- D C3/2 C/2| c c d e| G2 c d| e d c B| A/2- G3/2 c E|\
 D4| C2 z||
